X:1
T:God Moves, CM
T:God Moves, CM
T:Scott Werdebaugh, 2017
T:© 2017 Scott Werdebaugh. Reproduce or publish freely for Christian worship or devotions. Courtesy of the Cyber Hymnal™
C:Scott Werdebaugh, 2017
Z:© 2017 Scott Werdebaugh. Reproduce or publish freely for Christian worship or devotions.
Z:Courtesy of the Cyber Hymnal™
%%score 1 ( 2 3 ) ( 4 5 )
L:1/8
M:4/4
K:C
V:1 treble 
V:2 treble 
V:3 treble 
V:4 bass 
V:5 bass 
V:1
 G2 | E2 G2 A2 G2 | C2 D2 E2 E2 | D2 C2 F2 E2 | !fermata!D4 z2 G2 | c2 B2 A2 G2 | A2 ^F2 G2 E2 | %7
 F2 E2 E3 D | !fermata!C4 z2 |] %9
V:2
 [EG]2 | [CE]2 [EG]2 [FA]2 [EG]2 | C2 [B,D]2 [CE]2 [CE]2 | [B,D]2 C2 [CF]2 [CE]2 | %4
 !fermata![B,D]4 z2 [EG]2 | [Ec]2 [EB]2 [FA]2 [EG]2 | [FA]2 [D^F]2 [DG]2 [CE]2 | %7
 [CF]2 [CE]2 [B,E]3 [B,D] | !fermata!C4 z2 |] %9
V:3
 x2 | x8 | C2 x6 | x2 C2 x4 | x8 | x8 | x8 | x8 | C4 x2 |] %9
V:4
 [C,G,]2 | [C,G,]2 [C,G,]2 [C,F,]2 [C,G,]2 | [E,G,]2 [D,G,]2 [C,G,]2 [C,G,]2 | %3
 [D,G,]2 [E,G,]2 [F,A,]2 [E,G,]2 | !fermata![G,,G,]4 z2 [C,G,]2 | [C,G,]2 [E,G,]2 [C,F,]2 [C,G,]2 | %6
 [C,F,]2 [D,A,]2 [G,B,]2 [C,G,]2 | [F,A,]2 [E,G,]2 [G,,G,]3 (G,/F,/) | !fermata![E,G,]4 z2 |] %9
V:5
 x2 | x8 | x8 | x8 | x8 | x8 | x8 | x7 G,, | x6 |] %9

